X:1
T: Bridge of Nairn
T: 8x32S 3C (Robert Bremner, RSCDS Bk 13)
P: The Old Man Will Never Die
C: Arr. T. Traub 6-14-1998
C: (in Athole colln. as a reel)
%
K: G
M: 4/4
L: 1/8
|: D|"G"G>Bd<B "C"e2 e>g|"G"d/c/B/A/ G>B "D"A2 A>B|"G"G>Bd<B "C"e2 e>f|"Em"g>ag>d "Bm"B2 B :|
d|"G"g>ag>e d>ed<B|"G"g>ag>e "Am"a>g"D"a<b|"G"g>ag>e d>eg<b|"D"a>f"Em"g>e "Bm"B2 B>d|
"G"g>ag>e d>ed<B|"G"g>ag>e "D"a>ga<b|"G"g>b"C"e>g "G"d>eg>b|"D"a>f"Em"g>d "Bm"B2 B |]
